icons/svg/weather-sunset-down.svg

﻿<?xml version="1.0" encoding="utf-8"?>
<!DOCTYPE svg PUBLIC "-//W3C//DTD SVG 1.1//EN" "http://www.w3.org/Graphics/SVG/1.1/DTD/svg11.dtd">
<svg xmlns="http://www.w3.org/2000/svg" xmlns:xlink="http://www.w3.org/1999/xlink" version="1.1" baseProfile="full" width="24" height="24" viewBox="0 0 24.00 24.00" enable-background="new 0 0 24.00 24.00" xml:space="preserve">
	<path fill="#000000" fill-opacity="1" stroke-width="0.2" stroke-linejoin="round" d="M 3,12L 7,12C 7,9.23855 9.23858,6.99997 12,6.99997C 14.7614,6.99997 17,9.23855 17,12L 21,12C 21.5523,12 22,12.4477 22,13C 22,13.5523 21.5523,14 21,14L 3,14C 2.44772,14 2.00001,13.5523 2.00001,13C 2.00001,12.4477 2.44772,12 3,12 Z M 15,12C 15,10.3431 13.6568,8.99998 12,8.99998C 10.3431,8.99998 9,10.3431 9,12L 15,12 Z M 12,2L 14.3941,5.42008C 13.6471,5.14826 12.8409,4.99998 12,4.99998C 11.1591,4.99998 10.3528,5.14826 9.60593,5.42008L 12,2 Z M 3.34495,7.009L 7.50388,6.64573C 6.89501,7.15666 6.36348,7.78077 5.94302,8.509C 5.52258,9.23724 5.24786,10.0096 5.10981,10.7924L 3.34495,7.009 Z M 20.646,7.00379L 18.8812,10.7872C 18.7431,10.0044 18.4684,9.23203 18.0479,8.50379C 17.6275,7.77556 17.096,7.15145 16.4871,6.64052L 20.646,7.00379 Z M 12.7123,20.7071L 15.8235,17.5959C 16.2141,17.2053 16.2141,16.5722 15.8235,16.1816C 15.433,15.7911 14.7999,15.7911 14.4093,16.1816L 11.9996,18.5913L 9.58996,16.1816C 9.19944,15.7911 8.56627,15.7911 8.17575,16.1816C 7.78522,16.5722 7.78522,17.2053 8.17575,17.5959L 11.287,20.7071C 11.4838,20.9039 11.7421,21.0015 12,21C 12.2576,21.0013 12.5157,20.9037 12.7123,20.7071 Z "/>
</svg>

<svg xmlns="http://www.w3.org/2000/svg" version="1.1" baseProfile="full" width="24" height="24" viewBox="0 0 24.00 24.00" xml:space="preserve"><path fill="#000" fill-opacity="1" stroke-width=".2" stroke-linejoin="round" d="M3 12h4c0-2.76 2.24-5 5-5s5 2.24 5 5h4c.552 0 1 .448 1 1s-.448 1-1 1H3c-.552 0-1-.448-1-1s.448-1 1-1zm12 0c0-1.657-1.343-3-3-3s-3 1.343-3 3h6zM12 2l2.394 3.42C13.647 5.148 12.84 5 12 5c-.84 0-1.647.148-2.394.42L12 2zM3.345 7.01l4.16-.364c-.61.51-1.142 1.135-1.562 1.863-.42.727-.695 1.5-.833 2.282L3.345 7.01zm17.3-.006l-1.764 3.783c-.137-.783-.412-1.555-.832-2.283s-.952-1.353-1.56-1.863l4.158.364zm-7.933 13.703l3.11-3.11c.392-.392.392-1.025.002-1.415-.39-.39-1.024-.39-1.415 0L12 18.592l-2.41-2.41c-.39-.39-1.024-.39-1.414 0-.39.39-.39 1.023 0 1.414l3.11 3.11c.198.198.456.296.714.294.258 0 .516-.096.712-.293z"/></svg>
